library/book subjects/عربي.svg

<svg width="167" height="225" viewBox="0 0 167 225" fill="none" xmlns="http://www.w3.org/2000/svg">
<rect width="166.83" height="224.757" rx="12.744" fill="url(#paint0_radial_175_3115)"/>
<path d="M27.5703 46.2344C27.5703 46.9375 27.7666 47.4502 28.1592 47.7725C28.5576 48.1006 29.1816 48.2705 30.0312 48.2822V43.835H29.873C28.3379 43.835 27.5703 44.6348 27.5703 46.2344ZM31.0068 52C29.8115 52 28.8916 51.9473 28.2471 51.8418C27.5381 51.7422 26.9727 51.5752 26.5508 51.3408C25.6367 50.8545 24.9365 50.2188 24.4502 49.4336C23.9639 48.6426 23.7207 47.5762 23.7207 46.2344C23.7207 44.9922 23.9639 43.9697 24.4502 43.167C24.9307 42.376 25.6309 41.7402 26.5508 41.2598C27.0195 41.0254 27.582 40.8555 28.2383 40.75C28.8711 40.6445 29.7002 40.5918 30.7256 40.5918H33.793V48.2383H35.665V52H31.0068ZM28.5547 36.4961C28.1914 36.1387 27.7549 35.96 27.2451 35.96C26.7295 35.96 26.29 36.1387 25.9268 36.4961C25.5635 36.8652 25.3818 37.3047 25.3818 37.8145C25.3818 38.3301 25.5635 38.7666 25.9268 39.124C26.2842 39.4932 26.7236 39.6777 27.2451 39.6777C27.7549 39.6777 28.1914 39.4932 28.5547 39.124C28.918 38.7666 29.0996 38.3301 29.0996 37.8145C29.0996 37.3047 28.918 36.8652 28.5547 36.4961ZM33.3096 36.4961C32.9404 36.1387 32.501 35.96 31.9912 35.96C31.4814 35.96 31.0449 36.1387 30.6816 36.4961C30.3184 36.8652 30.1367 37.3047 30.1367 37.8145C30.1367 38.3301 30.3184 38.7666 30.6816 39.124C31.0391 39.4932 31.4756 39.6777 31.9912 39.6777C32.5068 39.6777 32.9463 39.4932 33.3096 39.124C33.6729 38.7666 33.8545 38.3301 33.8545 37.8145C33.8545 37.3047 33.6729 36.8652 33.3096 36.4961ZM37.5283 56.377C38.0439 56.377 38.4834 56.1953 38.8467 55.832C39.2041 55.4688 39.3828 55.0322 39.3828 54.5225C39.3828 54.0068 39.2041 53.5674 38.8467 53.2041C38.4775 52.8408 38.0381 52.6592 37.5283 52.6592C37.0127 52.6592 36.5762 52.8408 36.2188 53.2041C35.8555 53.5674 35.6738 54.0068 35.6738 54.5225C35.6738 55.0381 35.8555 55.4746 36.2188 55.832C36.5762 56.1953 37.0127 56.377 37.5283 56.377ZM42.2832 56.377C42.793 56.377 43.2324 56.1953 43.6016 55.832C43.959 55.4688 44.1377 55.0322 44.1377 54.5225C44.1377 54.0068 43.959 53.5674 43.6016 53.2041C43.2324 52.8408 42.793 52.6592 42.2832 52.6592C41.7676 52.6592 41.3311 52.8408 40.9736 53.2041C40.6045 53.5674 40.4199 54.0068 40.4199 54.5225C40.4199 55.0381 40.6045 55.4746 40.9736 55.832C41.3311 56.1953 41.7676 56.377 42.2832 56.377ZM34.9443 52V48.2383H39.084C39.8223 48.2324 40.2441 48.042 40.3496 47.667C40.4492 47.4502 40.499 46.9902 40.499 46.2871V42.042H44.2871V48.2383H45.3682V52H34.9443ZM44.6475 52V48.2383H45.6934C46.4316 48.2324 46.8535 48.042 46.959 47.667C47.0527 47.4502 47.0996 46.9902 47.0996 46.2871V42.042H50.8965V48.0361C50.8965 48.3936 50.8877 48.6543 50.8701 48.8184C50.8467 49.0469 50.8174 49.252 50.7822 49.4336C50.7412 49.6152 50.6885 49.7822 50.624 49.9346C50.5479 50.1162 50.4717 50.2656 50.3955 50.3828C50.0674 50.8984 49.6367 51.2939 49.1035 51.5693C48.5645 51.8564 47.958 52 47.2842 52H44.6475ZM48.6201 53.248C48.2568 52.8848 47.8174 52.7031 47.3018 52.7031C46.792 52.7031 46.3555 52.8848 45.9922 53.248C45.6289 53.6113 45.4473 54.0508 45.4473 54.5664C45.4473 55.082 45.6289 55.5186 45.9922 55.876C46.3496 56.2393 46.7861 56.4209 47.3018 56.4209C47.8174 56.4209 48.2568 56.2393 48.6201 55.876C48.9834 55.5127 49.165 55.0762 49.165 54.5664C49.165 54.0508 48.9834 53.6113 48.6201 53.248ZM51.6172 53.7754C52.7305 53.5527 53.3545 52.9609 53.4893 52L53.4629 41.4707L57.251 41.4619V48.2383H59.123V52H57.1543C57.0664 54.2559 55.7568 55.7617 53.2256 56.5176L51.6172 53.7754ZM64.9678 44.0107C64.3291 44.0107 63.8223 44.1982 63.4473 44.5732C63.0605 44.96 63.4473 46.1787 64.6074 48.2295H66.3916C67.5459 46.1787 67.9326 44.96 67.5518 44.5732C67.1709 44.1982 66.6641 44.0107 66.0312 44.0107H64.9678ZM58.4111 52V48.2383H61.083C59.9756 45.8008 59.5508 44.2393 59.8086 43.5537C60.0664 42.8682 60.4619 42.2646 60.9951 41.7432C61.5107 41.21 62.1025 40.8115 62.7705 40.5479C63.415 40.2842 64.1475 40.1523 64.9678 40.1523C65.249 40.1523 65.4248 40.1523 65.4951 40.1523C65.5654 40.1523 65.7441 40.1523 66.0312 40.1523C66.8516 40.1523 67.584 40.2842 68.2285 40.5479C68.8965 40.8115 69.4854 41.21 69.9951 41.7432C70.5283 42.2646 70.9238 42.8682 71.1816 43.5537C71.4453 44.2393 71.0205 45.8008 69.9072 48.2383H72.5791V52H58.4111ZM77.6064 40.7061V48.0361C77.6064 48.3936 77.5947 48.6543 77.5713 48.8184C77.5537 49.0469 77.5273 49.252 77.4922 49.4336C77.4453 49.6152 77.3926 49.7822 77.334 49.9346C77.252 50.1162 77.1729 50.2656 77.0967 50.3828C76.7744 50.8984 76.3467 51.2939 75.8135 51.5693C75.2744 51.8564 74.668 52 73.9941 52H71.8584V48.2383H72.3945C73.1328 48.2324 73.5576 48.042 73.6689 47.667C73.7627 47.4502 73.8096 46.9902 73.8096 46.2871V37.6738H77.8438V40.7061H77.6064ZM80.5771 52V40.7939H80.0059V37.6738H84.0752V52H80.5771ZM92.9961 46.2344C92.9961 46.9375 93.1924 47.4502 93.585 47.7725C93.9834 48.1006 94.6074 48.2705 95.457 48.2822V43.835H95.2988C93.7637 43.835 92.9961 44.6348 92.9961 46.2344ZM96.4326 52C95.2373 52 94.3174 51.9473 93.6729 51.8418C92.9639 51.7422 92.3984 51.5752 91.9766 51.3408C91.0625 50.8545 90.3623 50.2188 89.876 49.4336C89.3896 48.6426 89.1465 47.5762 89.1465 46.2344C89.1465 44.9922 89.3896 43.9697 89.876 43.167C90.3564 42.376 91.0566 41.7402 91.9766 41.2598C92.4453 41.0254 93.0078 40.8555 93.6641 40.75C94.2969 40.6445 95.126 40.5918 96.1514 40.5918H99.2188V48.2383H101.091V52H96.4326ZM93.9805 36.4961C93.6172 36.1387 93.1807 35.96 92.6709 35.96C92.1553 35.96 91.7158 36.1387 91.3525 36.4961C90.9893 36.8652 90.8076 37.3047 90.8076 37.8145C90.8076 38.3301 90.9893 38.7666 91.3525 39.124C91.71 39.4932 92.1494 39.6777 92.6709 39.6777C93.1807 39.6777 93.6172 39.4932 93.9805 39.124C94.3438 38.7666 94.5254 38.3301 94.5254 37.8145C94.5254 37.3047 94.3438 36.8652 93.9805 36.4961ZM98.7354 36.4961C98.3662 36.1387 97.9268 35.96 97.417 35.96C96.9072 35.96 96.4707 36.1387 96.1074 36.4961C95.7441 36.8652 95.5625 37.3047 95.5625 37.8145C95.5625 38.3301 95.7441 38.7666 96.1074 39.124C96.4648 39.4932 96.9014 39.6777 97.417 39.6777C97.9326 39.6777 98.3721 39.4932 98.7354 39.124C99.0986 38.7666 99.2803 38.3301 99.2803 37.8145C99.2803 37.3047 99.0986 36.8652 98.7354 36.4961ZM106.927 44.0107C106.288 44.0107 105.781 44.1982 105.406 44.5732C105.02 44.96 105.406 46.1787 106.566 48.2295H108.351C109.505 46.1787 109.892 44.96 109.511 44.5732C109.13 44.1982 108.623 44.0107 107.99 44.0107H106.927ZM100.37 52V48.2383H103.042C101.935 45.8008 101.51 44.2393 101.768 43.5537C102.025 42.8682 102.421 42.2646 102.954 41.7432C103.47 41.21 104.062 40.8115 104.729 40.5479C105.374 40.2842 106.106 40.1523 106.927 40.1523C107.208 40.1523 107.384 40.1523 107.454 40.1523C107.524 40.1523 107.703 40.1523 107.99 40.1523C108.811 40.1523 109.543 40.2842 110.188 40.5479C110.855 40.8115 111.444 41.21 111.954 41.7432C112.487 42.2646 112.883 42.8682 113.141 43.5537C113.404 44.2393 112.979 45.8008 111.866 48.2383H114.538V52H100.37ZM109.203 37.6738C109.203 37.1641 109.024 36.7246 108.667 36.3555C108.298 35.9922 107.858 35.8105 107.349 35.8105C106.833 35.8105 106.396 35.9922 106.039 36.3555C105.67 36.7188 105.485 37.1582 105.485 37.6738C105.485 38.1895 105.67 38.626 106.039 38.9834C106.396 39.3467 106.833 39.5283 107.349 39.5283C107.858 39.5283 108.298 39.3467 108.667 38.9834C109.024 38.6201 109.203 38.1836 109.203 37.6738ZM120.286 40.7236V48.2383H121.367V52H113.817V48.2383H115.074C115.812 48.2324 116.237 48.042 116.349 47.667C116.442 47.4502 116.489 46.9902 116.489 46.2871V37.6738H120.532V40.7236H120.286ZM126.403 40.7061V48.0361C126.403 48.3936 126.392 48.6543 126.368 48.8184C126.351 49.0469 126.324 49.252 126.289 49.4336C126.242 49.6152 126.189 49.7822 126.131 49.9346C126.049 50.1162 125.97 50.2656 125.894 50.3828C125.571 50.8984 125.144 51.2939 124.61 51.5693C124.071 51.8564 123.465 52 122.791 52H120.655V48.2383H121.191C121.93 48.2324 122.354 48.042 122.466 47.667C122.56 47.4502 122.606 46.9902 122.606 46.2871V37.6738H126.641V40.7061H126.403ZM129.374 52V40.7939H128.803V37.6738H132.872V52H129.374Z" fill="white"/>
<path d="M137.331 118.073C137.331 120.487 136.849 122.883 135.883 125.262C134.918 127.607 133.539 129.848 131.746 131.986C129.988 134.123 127.867 136.106 125.385 137.933C122.937 139.76 120.196 141.346 117.162 142.691C114.127 144.001 110.852 145.036 107.335 145.794C103.853 146.553 100.215 146.932 96.4227 146.932C94.4919 146.932 92.699 146.794 91.044 146.518C89.389 146.242 87.6306 145.708 85.7688 144.915C85.3206 148.639 84.7689 152.173 84.1138 155.517C83.4932 158.896 82.6485 162.016 81.5797 164.878C80.5453 167.774 79.2351 170.395 77.6491 172.739C76.0976 175.084 74.1668 177.084 71.8567 178.738C69.5466 180.393 66.8056 181.669 63.6336 182.566C60.496 183.462 56.8241 183.91 52.6177 183.91C48.2389 183.91 44.5669 183.169 41.6018 181.686C38.6366 180.204 36.2749 178.239 34.5164 175.791C32.758 173.343 31.5341 170.533 30.8445 167.361C30.1894 164.223 29.9653 160.999 30.1721 157.689C30.379 154.379 30.9479 151.121 31.8788 147.915C32.8442 144.708 34.0682 141.812 35.5508 139.226C36.3093 139.295 36.7403 139.536 36.8437 139.95C36.9472 140.364 36.9989 140.795 36.9989 141.243C36.9989 141.312 36.9127 141.622 36.7403 142.174C36.6024 142.726 36.4128 143.415 36.1714 144.243C35.9301 145.07 35.6715 146.001 35.3956 147.035C35.1543 148.035 34.9129 149.035 34.6716 150.035C34.4302 151 34.2234 151.914 34.051 152.776C33.9131 153.638 33.8441 154.328 33.8441 154.845C33.8441 156.879 34.1717 158.913 34.8268 160.948C35.4818 162.982 36.5679 164.809 38.085 166.43C39.602 168.05 41.619 169.378 44.136 170.412C46.6874 171.446 49.8422 171.963 53.6003 171.963C56.4965 171.963 59.4789 171.584 62.5475 170.826C65.6161 170.067 68.4261 169.016 70.9775 167.671C73.5634 166.361 75.7355 164.809 77.4939 163.016C79.2868 161.223 80.3557 159.293 80.7005 157.224C80.7005 154.397 80.5625 151.88 80.2867 149.673C80.0454 147.466 79.6316 145.449 79.0455 143.622C78.4593 141.76 77.6836 140.054 76.7182 138.502C75.7873 136.916 74.6322 135.313 73.2531 133.692C73.1497 133.451 73.2014 133.141 73.4082 132.761C73.6151 132.382 73.9082 131.83 74.2874 131.106C74.7012 130.348 75.1666 129.348 75.6838 128.107C76.201 126.831 76.7182 125.193 77.2354 123.194C77.6491 123.194 77.9939 123.245 78.2697 123.349C78.58 123.418 78.942 123.711 79.3558 124.228C79.7695 124.745 80.3039 125.573 80.959 126.71C81.6486 127.814 82.5795 129.4 83.7518 131.468L90.32 133.537C94.9746 128.538 98.9913 124.4 102.37 121.125C105.749 117.815 108.663 115.212 111.111 113.315C113.593 111.385 115.696 110.04 117.42 109.281C119.144 108.488 120.696 108.092 122.075 108.092C123.971 108.092 125.833 108.351 127.66 108.868C129.522 109.35 131.16 110.04 132.573 110.936C133.987 111.833 135.125 112.884 135.987 114.091C136.883 115.298 137.331 116.625 137.331 118.073ZM129.367 125.573C129.126 123.676 128.074 122.263 126.212 121.332C124.35 120.366 121.489 119.884 117.627 119.884C116.834 119.884 115.92 120.073 114.886 120.453C113.852 120.832 112.524 121.573 110.904 122.676C109.318 123.745 107.335 125.262 104.956 127.228C102.612 129.158 99.6981 131.71 96.2158 134.882C99.8705 134.882 103.405 134.606 106.818 134.054C110.266 133.468 113.438 132.727 116.334 131.83C119.23 130.934 121.799 129.934 124.04 128.831C126.281 127.727 128.057 126.641 129.367 125.573ZM98.75 91.3354L91.8198 98.5241L84.3207 92.5249L90.5786 85.2327L98.75 91.3354Z" fill="white"/>
<defs>
<radialGradient id="paint0_radial_175_3115" cx="0" cy="0" r="1" gradientUnits="userSpaceOnUse" gradientTransform="translate(83.4151 112.379) rotate(90) scale(112.379 83.4151)">
<stop stop-color="#13C76D"/>
<stop offset="1" stop-color="#007A3D"/>
</radialGradient>
</defs>
</svg>

<svg xmlns="http://www.w3.org/2000/svg" width="167" height="225" fill="none" xmlns:v="https://vecta.io/nano"><rect width="166.83" height="224.757" rx="12.744" fill="url(#A)"/><path d="M27.57 46.234c0 .703.196 1.216.589 1.538.398.328 1.022.498 1.872.51v-4.447h-.158c-1.535 0-2.303.8-2.303 2.399zM31.007 52c-1.195 0-2.115-.053-2.76-.158-.709-.1-1.274-.267-1.696-.501-.914-.486-1.614-1.122-2.101-1.907-.486-.791-.729-1.857-.729-3.199 0-1.242.243-2.265.729-3.067.481-.791 1.181-1.427 2.101-1.907.469-.234 1.031-.404 1.688-.51.633-.105 1.462-.158 2.487-.158h3.067v7.647h1.872V52h-4.658zm-2.452-15.504a1.8 1.8 0 0 0-1.31-.536 1.81 1.81 0 0 0-1.318.536c-.363.369-.545.809-.545 1.318a1.77 1.77 0 0 0 .545 1.31 1.76 1.76 0 0 0 1.318.554 1.77 1.77 0 0 0 1.31-.554c.363-.357.545-.794.545-1.309 0-.51-.182-.949-.545-1.318zm4.755 0a1.83 1.83 0 0 0-1.318-.536 1.8 1.8 0 0 0-1.31.536c-.363.369-.545.809-.545 1.318a1.77 1.77 0 0 0 .545 1.31 1.75 1.75 0 0 0 1.31.554 1.78 1.78 0 0 0 1.318-.554c.363-.357.545-.794.545-1.309 0-.51-.182-.949-.545-1.318zm4.219 19.881c.516 0 .955-.182 1.318-.545a1.8 1.8 0 0 0 .536-1.309 1.81 1.81 0 0 0-.536-1.318c-.369-.363-.809-.545-1.318-.545-.516 0-.952.182-1.309.545-.363.363-.545.803-.545 1.318a1.77 1.77 0 0 0 .545 1.31c.357.363.794.545 1.31.545zm4.755 0c.51 0 .949-.182 1.318-.545a1.8 1.8 0 0 0 .536-1.309 1.81 1.81 0 0 0-.536-1.318c-.369-.363-.809-.545-1.318-.545a1.77 1.77 0 0 0-1.31.545 1.78 1.78 0 0 0-.554 1.318 1.75 1.75 0 0 0 .554 1.31 1.77 1.77 0 0 0 1.31.545zM34.944 52v-3.762h4.14c.738-.006 1.16-.196 1.266-.571.1-.217.149-.677.149-1.38v-4.245h3.788v6.196h1.081V52H34.944zm9.703 0v-3.762h1.046c.738-.006 1.16-.196 1.266-.571.094-.217.141-.677.141-1.38v-4.245h3.797v5.994l-.026.782-.088.615a2.95 2.95 0 0 1-.158.501 2.86 2.86 0 0 1-.229.448 3.31 3.31 0 0 1-1.292 1.186c-.539.287-1.145.431-1.819.431h-2.637zm3.973 1.248c-.363-.363-.803-.545-1.318-.545-.51 0-.946.182-1.31.545a1.79 1.79 0 0 0-.545 1.318 1.77 1.77 0 0 0 .545 1.31c.357.363.794.545 1.31.545s.955-.182 1.318-.545.545-.8.545-1.31c0-.516-.182-.955-.545-1.318zm2.997.527c1.113-.223 1.737-.814 1.872-1.775l-.026-10.529 3.788-.009v6.776h1.872V52h-1.969c-.088 2.256-1.398 3.762-3.929 4.518l-1.608-2.742zm13.351-9.765c-.639 0-1.145.188-1.52.563-.387.387 0 1.605 1.16 3.656h1.784c1.154-2.051 1.541-3.27 1.16-3.656-.381-.375-.888-.562-1.521-.562h-1.063zM58.411 52v-3.762h2.672c-1.107-2.437-1.532-3.999-1.274-4.685a4.92 4.92 0 0 1 1.187-1.81 5 5 0 0 1 1.775-1.195c.645-.264 1.377-.396 2.197-.396h.527.536c.82 0 1.553.132 2.197.396a4.92 4.92 0 0 1 1.767 1.195 4.94 4.94 0 0 1 1.187 1.81c.264.686-.161 2.247-1.274 4.685h2.672V52H58.411zm19.195-11.294v7.33l-.035.782c-.018.229-.044.434-.079.615a4.61 4.61 0 0 1-.158.501 3.39 3.39 0 0 1-.237.448c-.322.516-.75.911-1.283 1.186-.539.287-1.145.431-1.819.431h-2.136v-3.762h.536c.738-.006 1.163-.196 1.274-.571.094-.217.141-.677.141-1.38v-8.613h4.034v3.032h-.237zM80.577 52V40.794h-.571v-3.12h4.069V52h-3.498zm12.419-5.766c0 .703.196 1.216.589 1.538.398.328 1.022.498 1.872.51v-4.447h-.158c-1.535 0-2.303.8-2.303 2.399zM96.433 52c-1.195 0-2.115-.053-2.76-.158-.709-.1-1.275-.267-1.696-.501-.914-.486-1.614-1.122-2.101-1.907-.486-.791-.73-1.857-.73-3.199 0-1.242.243-2.265.73-3.067.48-.791 1.181-1.427 2.101-1.907.469-.234 1.031-.404 1.688-.51.633-.105 1.462-.158 2.487-.158h3.067v7.647h1.872V52h-4.658zm-2.452-15.504a1.8 1.8 0 0 0-1.31-.536 1.81 1.81 0 0 0-1.318.536c-.363.369-.545.809-.545 1.318a1.77 1.77 0 0 0 .545 1.31 1.76 1.76 0 0 0 1.318.554 1.77 1.77 0 0 0 1.31-.554c.363-.357.545-.794.545-1.309 0-.51-.182-.949-.545-1.318zm4.755 0a1.83 1.83 0 0 0-1.318-.536 1.8 1.8 0 0 0-1.31.536c-.363.369-.545.809-.545 1.318a1.77 1.77 0 0 0 .545 1.31 1.75 1.75 0 0 0 1.31.554 1.78 1.78 0 0 0 1.318-.554c.363-.357.545-.794.545-1.309 0-.51-.182-.949-.545-1.318zm8.192 7.515c-.639 0-1.146.188-1.521.563-.386.387 0 1.605 1.16 3.656h1.785c1.154-2.051 1.541-3.27 1.16-3.656-.381-.375-.888-.562-1.521-.562h-1.063zM100.37 52v-3.762h2.672c-1.107-2.437-1.532-3.999-1.274-4.685a4.93 4.93 0 0 1 1.186-1.81c.516-.533 1.108-.932 1.775-1.195.645-.264 1.377-.396 2.198-.396h.527.536c.821 0 1.553.132 2.198.396.667.264 1.256.662 1.766 1.195a4.94 4.94 0 0 1 1.187 1.81c.258.685-.162 2.247-1.275 4.685h2.672V52H100.37zm8.833-14.326a1.83 1.83 0 0 0-.536-1.318c-.369-.363-.809-.545-1.318-.545-.516 0-.953.182-1.31.545a1.78 1.78 0 0 0-.554 1.318c0 .516.185.952.554 1.31.357.363.794.545 1.31.545.509 0 .949-.182 1.318-.545a1.8 1.8 0 0 0 .536-1.31zm11.083 3.05v7.515h1.081V52h-7.55v-3.762h1.257c.738-.006 1.163-.196 1.275-.571.093-.217.14-.677.14-1.38v-8.613h4.043v3.05h-.246zm6.117-.017v7.33l-.035.782a5.37 5.37 0 0 1-.079.615 4.77 4.77 0 0 1-.158.501 3.39 3.39 0 0 1-.237.448 3.24 3.24 0 0 1-1.284 1.186c-.539.287-1.145.431-1.819.431h-2.136v-3.762h.536c.739-.006 1.163-.196 1.275-.571.094-.217.14-.677.14-1.38v-8.613h4.035v3.032h-.238zM129.374 52V40.794h-.571v-3.12h4.069V52h-3.498zm7.957 66.073c0 2.414-.482 4.81-1.448 7.189-.965 2.345-2.344 4.586-4.137 6.724-1.758 2.137-3.879 4.12-6.361 5.947-2.448 1.827-5.189 3.413-8.223 4.758-3.035 1.31-6.31 2.345-9.827 3.103-3.482.759-7.12 1.138-10.912 1.138-1.931 0-3.724-.138-5.379-.414s-3.413-.81-5.275-1.603a145.88 145.88 0 0 1-1.655 10.602c-.621 3.379-1.465 6.499-2.534 9.361-1.034 2.896-2.345 5.517-3.931 7.861a22.79 22.79 0 0 1-5.792 5.999c-2.31 1.655-5.051 2.931-8.223 3.828-3.138.896-6.809 1.344-11.016 1.344-4.379 0-8.051-.741-11.016-2.224s-5.327-3.447-7.085-5.895-2.982-5.258-3.672-8.43c-.655-3.138-.879-6.362-.672-9.672a45.02 45.02 0 0 1 1.707-9.774c.965-3.207 2.189-6.103 3.672-8.689.758.069 1.189.31 1.293.724a5.31 5.31 0 0 1 .155 1.293c0 .069-.086.379-.259.931a57.05 57.05 0 0 1-.569 2.069l-.776 2.792-.724 3c-.241.965-.448 1.879-.621 2.741-.138.862-.207 1.552-.207 2.069a19.82 19.82 0 0 0 .983 6.103c.655 2.035 1.741 3.861 3.258 5.482s3.534 2.948 6.051 3.982c2.551 1.034 5.706 1.551 9.464 1.551 2.896 0 5.879-.379 8.947-1.137s5.879-1.81 8.43-3.155c2.586-1.31 4.758-2.862 6.516-4.655 1.793-1.793 2.862-3.723 3.207-5.792 0-2.827-.138-5.344-.414-7.551-.241-2.207-.655-4.224-1.241-6.051a22.35 22.35 0 0 0-2.327-5.12c-.931-1.586-2.086-3.189-3.465-4.81-.103-.241-.052-.551.155-.931l.879-1.655c.414-.758.879-1.758 1.396-2.999.517-1.276 1.034-2.914 1.552-4.913.414 0 .758.051 1.034.155.31.069.672.362 1.086.879s.948 1.345 1.603 2.482c.69 1.104 1.62 2.69 2.793 4.758l6.568 2.069c4.655-4.999 8.671-9.137 12.05-12.412 3.379-3.31 6.293-5.913 8.741-7.81 2.482-1.93 4.585-3.275 6.309-4.034 1.724-.793 3.276-1.189 4.655-1.189 1.896 0 3.758.259 5.585.776 1.862.482 3.5 1.172 4.913 2.068s2.552 1.948 3.414 3.155c.896 1.207 1.344 2.534 1.344 3.982zm-7.964 7.5c-.241-1.897-1.293-3.31-3.155-4.241-1.862-.966-4.723-1.448-8.585-1.448-.793 0-1.707.189-2.741.569s-2.362 1.12-3.982 2.223c-1.586 1.069-3.569 2.586-5.948 4.552-2.344 1.93-5.258 4.482-8.74 7.654 3.655 0 7.189-.276 10.602-.828 3.448-.586 6.62-1.327 9.516-2.224s5.465-1.896 7.706-2.999 4.017-2.19 5.327-3.258zM98.75 91.335l-6.93 7.189-7.499-5.999 6.258-7.292 8.171 6.103z" fill="#fff"/><defs><radialGradient id="A" cx="0" cy="0" r="1" gradientUnits="userSpaceOnUse" gradientTransform="translate(83.4151 112.379) rotate(90) scale(112.379 83.4151)"><stop stop-color="#13c76d"/><stop offset="1" stop-color="#007a3d"/></radialGradient></defs></svg>
